icons/Design/table-fill.svg

<svg viewBox="0 0 24 24" xmlns="http://www.w3.org/2000/svg"><path d="M15 21H9V10H15V21ZM17 21V10H22V20C22 20.5523 21.5523 21 21 21H17ZM7 21H3C2.44772 21 2 20.5523 2 20V10H7V21ZM22 8H2V4C2 3.44772 2.44772 3 3 3H21C21.5523 3 22 3.44772 22 4V8Z"/></svg>

<svg xmlns="http://www.w3.org/2000/svg" viewBox="0 0 24 24">
    <g>
        <path fill="none" d="M0 0h24v24H0z"/>
        <path d="M15 21H9V10h6v11zm2 0V10h5v10a1 1 0 0 1-1 1h-4zM7 21H3a1 1 0 0 1-1-1V10h5v11zM22 8H2V4a1 1 0 0 1 1-1h18a1 1 0 0 1 1 1v4z"/>
    </g>
</svg>
